X:122
T:Pipe on the Hob
Z: id:dc-jig-102
M:6/8
L:1/8
K:D Mixolydian
A|d^cd A2G|F2D DED|EDE cBc|E2D DFA|!
dcB cBA|BAG A2G|EDE cBc|E2D D2:|!
e|f2d d^cd|f2d d^cd|edB c2d|ede age|!
[1 f2d d^cd|f2d d^cd|ede a2g|ed^c d2:|!
[2 f3 g3|agf gfe|fed eag|ed^c d2|]!

